X:1
T:Confitebor Tibi
T:Giovanni Casali (1715 - 1762) edit BMarble
T:Confitebor Tibi
T:Copyright © 2015 by CPDL.  This edition can be fully distributed, duplicated, performed, and recorded. 
T:Copyright © 2015 by CPDL.  This edition can be fully distributed, duplicated, performed, and recorded. 
T:Copyright © 2015 by CPDL.  This edition can be fully distributed, duplicated, performed, and recorded. 
T:Copyright © 2015 by CPDL.  This edition can be fully distributed, duplicated, performed, and recorded. 
T:Copyright © 2015 by CPDL.  This edition can be fully distributed, duplicated, performed, and recorded. 
T:Copyright © 2015 by CPDL.  This edition can be fully distributed, duplicated, performed, and recorded. 
T:Copyright © 2015 by CPDL.  This edition can be fully distributed, duplicated, performed, and recorded. 
C:Giovanni Casali (1715 - 1762)
C:edit BMarble
Z:Copyright © 2015 by CPDL.  This edition can be fully distributed, duplicated, performed, and recorded.
Z:
%%score [ 1 2 3 4 ]
L:1/8
Q:1/2=108
M:4/2
K:F
V:1 treble nm="Soprano" snm="S."
V:2 treble nm="Alto" snm="A."
V:3 treble-8 transpose=-12 nm="Tenor" snm="T."
V:4 bass nm="Bass" snm="B."
V:1
"^Offertory for Passion Sunday:I will praise thee, O Lord, with my whole heart.Be kind to your servant that I may live,that I may keep your word;give me life in accord with your word." F8 F8 | %1
w: Con- fi-|
 G8 F8 | z16 | z16 | c6 d2 e4 c4 | d2 c2 d2 e2 f4 d4- | d4 c4 B8- | B12 A4- | A4 G2 F2 G4 c4 | %9
w: te- bor,|||con- fi- te- bor|ti- * bi _ Do- *|* mi- ne,|_ Do-|* mi- * ne in|
 c16- | c4 d2 c2 =B4 c4- | c4 =B4 c8 | z8 z4 c4 | A6 d2 =B4 c4- | c4 =B4 c4 e4 | d6 d2 c4 c4 | %16
w: to-|* to _ cor- de|_ me- o,|in|to- to cor- de|_ me- o. Re-|tri- bu- e, re-|
 A6 A2 ^G4 =B4- | B4 A8 ^G4 | A4 (c6 =B2) A4 | d6 c2 =B2 A2 G4 | z4 G4 c8- | c4 c8 =B4 | %22
w: tri- bu- e ser-|* vo tu-|o vi- * vam|et cu- sto- di- am|ser- mo-|* nes tu-|
 c4 c4 c8- | c16- | c16- | c4 _B4 B8 | z4 d4 c2 B2 A4 | z4 d4 (c2 B2) A4 | z4 d4 c6 B2 || %29
w: os, cu- sto-|||* di- am,|cu- sto- di- am|ser- mo- * nes,|cu- sto- di-|
[M:3/1] A6 c2 B4 A4 G8 ||[M:3/2][Q:1/2=132] A8 A4 | B6 F2 B4 | A8 A4 | G4 c8- | c4 B4 G4 | A8 c4 | %36
w: am ser- mo- nes tu-|os. Vi-|vi- fi- ca|me se-|cun- dum|_ ver- bum|tu- um|
 =B4 c8 | c4 _B8 | A8 G4 | A8 c4 | =B8 c4- | c4 =B6 B2 | c8 z4 | z12 | A4 A4 A4 | d8 c4 | B12- | %47
w: Do- mi-|ne, se-|cun- dum|ver- bum|tu- um|_ Do- mi-|ne,||se- cun- dum|ver- bum|tu-|
 B8 A4 | B8 B4 | A8 z4 | z8 A4 | G6 A2 B4 | A8 z4 | z12 | z12 | F4 F4 F4 | B12- | B4 A8 | B12- | %59
w: * um|Do- mi-|ne,|vi-|vi- fi- ca|me|||se- cun- dum|ver-|* bum|tu-|
 B4 A8 | G8 G4 | A8 A4 | B8 A4 | B8 c4 | B8 A4 | B12- | B8 B4 | A12 |] %68
w: * um|Do- mi-|ne, se-|cun- dum|ver- bum|tu- um|Do-|* mi-|ne.|
V:2
 C8 D8 | E8 F8 | z16 | z8 F6 G2 | A4 F4 G4 A4 | F16- | F4 A8 G4- | G4 F2 E2 F8- | F4 E2 D2 E4 E4 | %9
w: Con- fi-|te- bor,||con- fi-|te- bor ti- bi|Do-|||* mi- * ne in|
 E4 G4 F4 G4 | A8 G6 A2 | G8 G4 G4 | G4 G4 G8- | G4 F8 E2 F2 | G8 G4 G4 | ^G6 G2 A4 E4- | %16
w: to- to cor- de|me- * *|* o, in|to- to cor-|* * de _|me- o. Re-|tri- bu- e, re-|
 E4 D2 D2 E4 E4- | E4 E4 D8 | E8 z4 A4- | (A2 G2) F4 z4 G4- | G2 F2 E2 D2 C4 G4 | A4 F4 F8 | %22
w: * tri- bu- e ser-|* vo tu-|o vi-|* * vam et|_ cu- sto- di- am ser-|mo- nes tu-|
 E8 z4 A4 | G2 F2 E4 z4 A4 | G8 A8 | F8 F4 F4 | F16- | F16- | F8 G6 G2 || %29
w: os, cu-|sto- di- am ser-|mo- nes|tu- os, cu-|sto-||* * di-|
[M:3/1] F2 C2 F8 F4 (F4 E4) ||[M:3/2] F8 F4 | F6 F2 E4 | F4 F8- | F4 E4 C4 | D8 E4 | F8 F4 | %36
w: am ser- mo- nes tu- *|os. Vi-|vi- fi- ca|me se-|* cun- dum|ver- bum|tu- um,|
 D4 G4 E4 | F8 G4 | F8 E4 | F8 ^F4 | G8 G4 | G8 G4 | G8 G4 | G6 A2 B4 | A8 z4 | A4 A4 A4 | G8 G4 | %47
w: se- cun- dum|ver- bum|tu- um,|ver- bum|tu- um|Do- mi-|ne, vi-|vi- fi- ca|me|se- cun- dum|ver- bum|
 G8 F4- | F4 E4 E4 | F8 z4 | z8 F4 | E6 F2 G4 | F8 z4 | z8 D4 | C6 D2 _E4 | D8 z4 | F4 F4 F4 | %57
w: tu- um|_ Do- mi-|ne,|vi-|vi- fi- ca|me,|vi-|vi- fi- ca|me|se- cun- dum|
 F12- | F4 (F4 G4) | G4 F8- | F4 E4 E4 | F8 F4 | F8 F4 | F8 F4 | F8 F4 | F12- | F8 F4 | F12 |] %68
w: ver-|* bum _|tu- um|_ Do- mi-|ne, se-|cun- dum|ver- bum|tu- um|Do-|* mi-|ne.|
V:3
 A8 B8 | B8 A8 | z8 c6 d2 | e4 c4 d2 c2 d2 e2 | f4 A4 c8 | B16- | B4 A4 d8 | c16- | c4 c4 c8 | %9
w: Con- fi-|te- bor,|con- fi-|te- bor ti- * * *|* bi Do-||* mi- ne,|Do-|* mi- ne|
 z4 e4 c4 e4 | c4 f2 e2 d4 e4 | d8 e4 e4 | d2 c2 =B2 d2 c8- | (c4 d8) e4 | d8 e4 c4 | %15
w: in to- to|cor- de _ me- *|* o, in|to- * to _ cor-|* * de|me- o. Re-|
 =B6 B2 A4 A4 | A6 A2 =B8 | c4 c4 d8 | c4 (e6 d2) c4 | f6 e2 d2 c2 =B4 | z4 c4 e8 | c8 d8 | %22
w: tri- bu- e, re-|tri- bu- e|ser- vo tu-|o vi- * vam|et cu- sto- di- am|ser- mo-|nes tu-|
 G8 z4 f4 | e2 d2 c4 z4 f4 | e8 f8 | d8 d8 | z8 z4 f4 | d2 c2 B4 z4 f4 | (d2 c2) B4 z4 c4 || %29
w: os, cu-|sto- di- am ser-|mo- nes|tu- os,|cu-|sto- di- am ser-|mo- * nes, ser-|
[M:3/1] (c8 d4) c4 c8 ||[M:3/2] c8 c4 | d6 c2 B4 | c8 z4 | z12 | z12 | z8 A4 | G8 c4 | A4 d4 c4 | %38
w: mo- * nes tu-|os. Vi-|vi- fi- ca|me|||se-|cun- dum,|se- cun- dum|
 c8 c4 | c8 c4 | d8 e4 | d8 d4 | e8 e4 | d6 d2 d4 | ^c8 z4 | f4 f4 f4 | d8 d4 | =c8 c4 | B8 B4 | %49
w: ver- bum,|ver- bum|tu- um|Do- mi-|ne, vi-|vi- fi- ca|me|se- cun- dum|ver- bum|tu- um|Do- mi-|
 c8 c4 | c12- | c6 c2 c4 | F8 z4 | z8 B4 | A6 B2 c4 | B8 z4 | d4 d4 d4 | (c12 | B8) d4 | c4 c8 | %60
w: ne, vi-|vi-|* fi- ca-|me,|vi-|vi- fi- ca|me|se- cun- dum|ver-|* bum|tu- um|
 c8 c4 | c8 c4 | d8 _e4 | d8 c4 | d8 c4 | d12- | d8 d4 | c12 |] %68
w: Do- mi-|ne, se-|cun- dum|ver- bum|tu- um|Do-|* mi-|ne.|
V:4
 F,8 F,8 | F,8 F,8 | F,6 G,2 A,4 F,4 | G,4 A,4 B,2 A,2 B,2 G,2 | F,6 F,2 C,4 F,4 | %5
w: Con- fi-|te- bor,|con- fi- te- bor|ti- bi Do- * * *|* mi- ne in|
 B,,6 C,2 D,4 E,4 | F,8 G,6 F,2 | E,4 C,4 F,2 G,2 A,2 B,2 | C8 C,8 | z4 C4 A,4 E,4 | F,12 E,2 F,2 | %11
w: to- to cor- de|me- * *|* o, cor- * de _|me- o|in to- to|cor- de *|
 G,8 C,4 C4 | =B,2 A,2 G,2 F,2 E,4 C,4 | F,6 F,2 G,4 C4 | G,8 C,8 | z8 z4 A,4 | F,6 F,2 E,8 | %17
w: me- o, in|to- * to _ cor- de,|to- to cor- de|me- o.|Re-|tri- bu- e|
 A,4 C4 =B,8 | A,8 (A,6 G,2) | F,8 G,6 F,2 | E,2 D,2 C,4 z4 C,4 | F,4 A,4 D,8 | C,8 z8 | %23
w: ser- vo tu-|o vi- *|vam et cu-|sto- di- am ser-|mo- nes tu-|os,|
 z4 C4 A,2 G,2 F,4 | z4 C4 A,4 F,4 | B,8 B,,8 | z4 B,4 A,2 G,2 F,4 | z4 B,4 (A,2 G,2) F,4 | %28
w: cu- sto- di- am|ser- mo- nes|tu- os,|cu- sto- di- am|ser- mo- * nes,|
 z4 B,4 E,6 E,2 ||[M:3/1] F,6 A,2 B,4 F,4 C,8 ||[M:3/2] F,8 F,4 | B,6 A,2 G,4 | F,8 z4 | z12 | %34
w: cu- sto- di-|am ser- mo- nes tu-|os. Vi-|vi- fi- ca|me||
 z12 | z4 F,8- | F,4 E,4 C,4 | D,8 E,4 | F,8 C,4 | F,8 A,4 | G,8 C4 | G,8 G,4 | C,8 C4 | %43
w: |se-|* cun- dum|ver- bum|tu- um,|ver- bum|tu- um|Do- mi-|ne, vi-|
 B,6 A,2 G,4 | A,8 z4 | D,4 D,4 D,4 | G,8 F,4 | E,8 F,4 | G,8 G,4 | F,8 z4 | z12 | z12 | z8 F,4 | %53
w: vi- fi- ca|me|se- cun- dum|ver- bum|tu- um|Do- mi-|ne,|||vi-|
 F,12- | F,6 F,2 F,4 | B,8 z4 | B,,4 B,,4 B,,4 | F,8 F,4 | D,8 B,,4 | C,12- | C,8 C,4 | F,8 F,4 | %62
w: vi-|* fi- ca-|me|se- cun- dum|ver- bum|tu- um|Do-|* mi-|ne, se-|
 B,8 C4 | B,8 A,4 | B,8 F,4 | B,12- | B,8 B,4 | F,12 |] %68
w: cun- dum|ver- bum|tu- um|Do-|* mi-|ne.|

